app/images/social/soundcloud.svg

<?xml version="1.0" encoding="UTF-8" standalone="no"?>
<svg width="134px" height="16px" viewBox="0 0 134 16" version="1.1" xmlns="http://www.w3.org/2000/svg" xmlns:xlink="http://www.w3.org/1999/xlink" xmlns:sketch="http://www.bohemiancoding.com/sketch/ns">
    <!-- Generator: Sketch Beta 3.3 (11970) - http://www.bohemiancoding.com/sketch -->
    <title>soundcloud</title>
    <desc>Created with Sketch Beta.</desc>
    <defs></defs>
    <g id="Art" stroke="none" stroke-width="1" fill="none" fill-rule="evenodd" sketch:type="MSPage">
        <g id="Artboard-2" sketch:type="MSArtboardGroup" transform="translate(-418.000000, -722.000000)" fill="#FFFFFF">
            <g id="soundcloud" sketch:type="MSLayerGroup" transform="translate(418.000000, 722.000000)">
                <path d="M0.417900783,9.42517073 C0.340908616,9.42517073 0.279791123,9.48370732 0.269869452,9.56721951 L0,11.5828293 L0.269869452,13.5637073 C0.279791123,13.6472195 0.340908616,13.7053659 0.417900783,13.7053659 C0.492511749,13.7053659 0.553232376,13.6476098 0.565138381,13.5644878 L0.565138381,13.5644878 L0.565138381,13.5640976 C0.565138381,13.5640976 0.565138381,13.5640976 0.565138381,13.5644878 L0.885013055,11.5828293 L0.565138381,9.56682927 C0.553629243,9.48370732 0.492114883,9.42517073 0.417900783,9.42517073 L0.417900783,9.42517073 Z M1.93551958,8.32390244 C1.92281984,8.23726829 1.85971802,8.17756098 1.78193211,8.17756098 C1.70374935,8.17756098 1.63906005,8.23921951 1.62834465,8.32390244 C1.62834465,8.32468293 1.26560836,11.5828293 1.26560836,11.5828293 L1.62834465,14.769561 C1.63866319,14.8550244 1.70335248,14.9166829 1.78193211,14.9166829 C1.85932115,14.9166829 1.92242298,14.8565854 1.93512272,14.7703415 L2.34786423,11.5828293 L1.93551958,8.32390244 L1.93551958,8.32390244 Z M7.65198956,5.31785366 C7.50316449,5.31785366 7.38013577,5.43765854 7.37299217,5.58985366 L7.08407311,11.585561 L7.37299217,15.4602927 C7.38053264,15.6117073 7.50316449,15.731122 7.65198956,15.731122 C7.80002089,15.731122 7.92265274,15.6113171 7.93138381,15.4595122 L7.93138381,15.4606829 L8.25800522,11.585561 L7.93138381,5.58985366 C7.92265274,5.43765854 7.80002089,5.31785366 7.65198956,5.31785366 L7.65198956,5.31785366 Z M4.69334726,7.4017561 C4.57904961,7.4017561 4.4857859,7.4915122 4.47665796,7.61131707 L4.15122715,11.584 L4.47665796,15.4275122 C4.48538903,15.5465366 4.57904961,15.6362927 4.69334726,15.6362927 C4.80645431,15.6362927 4.89971802,15.5465366 4.90963969,15.4275122 L5.27951958,11.584 L4.90963969,7.61053659 C4.89971802,7.4915122 4.80645431,7.4017561 4.69334726,7.4017561 L4.69334726,7.4017561 Z M10.6586527,15.7307317 C10.8431958,15.7307317 10.9932115,15.5843902 11.000752,15.3970732 L11.2841149,11.5875122 L11.0011488,3.60507317 C10.9936084,3.4177561 10.8435927,3.27141463 10.6590496,3.27141463 C10.4729191,3.27141463 10.3225065,3.41814634 10.3165535,3.60546341 C10.3165535,3.60585366 10.0653368,11.587122 10.0653368,11.587122 L10.3165535,15.3982439 C10.3225065,15.584 10.4729191,15.7307317 10.6586527,15.7307317 L10.6586527,15.7307317 Z M16.8140574,15.7486829 C17.0680522,15.7486829 17.2775979,15.5430244 17.2823603,15.2901463 L17.2823603,15.292878 L17.2823603,15.2901463 L17.48,11.5898537 L17.2823603,2.37073171 C17.2779948,2.1182439 17.0680522,1.91219512 16.8140574,1.91219512 C16.5596658,1.91219512 16.3497232,2.11785366 16.3457546,2.37112195 L16.1691488,11.5867317 C16.1691488,11.5925854 16.3457546,15.2924878 16.3457546,15.2924878 C16.3497232,15.5430244 16.5600627,15.7486829 16.8140574,15.7486829 L16.8140574,15.7486829 Z M13.7129399,15.7342439 C13.9339948,15.7342439 14.112188,15.5598049 14.118141,15.3373659 L14.118141,15.3400976 L14.3586423,11.5882927 L14.1177441,3.54809756 C14.1117911,3.32565854 13.9335979,3.15160976 13.7125431,3.15160976 C13.4899008,3.15160976 13.3117076,3.32565854 13.3069452,3.54809756 L13.0930339,11.5886829 L13.307342,15.3397073 C13.3121044,15.5598049 13.4902977,15.7342439 13.7129399,15.7342439 L13.7129399,15.7342439 Z M6.16691384,15.699122 C6.29827676,15.699122 6.40463708,15.5957073 6.41455875,15.4595122 L6.76300783,11.584 L6.41455875,7.89736585 C6.40503394,7.76117073 6.29867363,7.65853659 6.16691384,7.65853659 C6.03356658,7.65853659 5.92720627,7.76195122 5.91887206,7.89892683 L5.61209399,11.584 L5.91887206,15.459122 C5.92760313,15.5957073 6.03356658,15.699122 6.16691384,15.699122 L6.16691384,15.699122 Z M3.23168668,15.4868293 C3.32772846,15.4868293 3.40551436,15.4122927 3.41662663,15.3092683 L3.80793734,11.5832195 L3.4170235,7.71668293 C3.40551436,7.61326829 3.32772846,7.53873171 3.23168668,7.53873171 C3.13445431,7.53873171 3.05666841,7.61365854 3.04674674,7.71668293 C3.04674674,7.71707317 2.70226632,11.5832195 2.70226632,11.5832195 L3.04674674,15.3084878 C3.05627154,15.4119024 3.13405744,15.4868293 3.23168668,15.4868293 L3.23168668,15.4868293 Z M15.2575457,3.4142439 C15.0174413,3.4142439 14.8249608,3.60195122 14.8201984,3.84234146 L14.6249399,11.5890732 L14.8201984,15.3166829 C14.8249608,15.5539512 15.0170444,15.7416585 15.2575457,15.7416585 C15.4972533,15.7416585 15.6885431,15.5543415 15.6940992,15.3139512 L15.6940992,15.3170732 L15.9131697,11.5894634 L15.6940992,3.84156098 C15.6885431,3.60195122 15.4972533,3.4142439 15.2575457,3.4142439 L15.2575457,3.4142439 Z M9.14976501,15.7385366 C9.31565535,15.7385366 9.45257441,15.6054634 9.46051175,15.4357073 L9.76530548,11.5867317 L9.46051175,4.21970732 C9.45217755,4.04956098 9.31565535,3.91687805 9.14976501,3.91687805 C8.98228721,3.91687805 8.84576501,4.04995122 8.83862141,4.21970732 C8.83862141,4.22009756 8.56875196,11.5867317 8.56875196,11.5867317 L8.83901828,15.4372683 C8.84576501,15.6054634 8.98228721,15.7385366 9.14976501,15.7385366 L9.14976501,15.7385366 Z M12.553295,15.3752195 L12.553295,15.3732683 L12.8152272,11.5879024 L12.553295,3.33658537 C12.5469452,3.13170732 12.3826423,2.97092683 12.1798433,2.97092683 C11.9758538,2.97092683 11.8115509,3.13131707 11.8059948,3.33658537 L11.5734308,11.5875122 L11.8063916,15.3748293 C11.8119478,15.5777561 11.9762507,15.7381463 12.1798433,15.7381463 C12.3830392,15.7381463 12.5465483,15.5777561 12.553295,15.3736585 L12.553295,15.3752195 L12.553295,15.3752195 Z M32.364094,6.83160976 C31.7422037,6.83160976 31.1488877,6.95531707 30.6083551,7.17814634 C30.2472063,3.1555122 26.8166893,0 22.6321253,0 C21.6082089,0 20.6100888,0.198243902 19.7286475,0.533463415 C19.3861514,0.663804878 19.2948721,0.79804878 19.2916971,1.05834146 L19.2916971,15.2241951 C19.2952689,15.4973659 19.5107676,15.724878 19.7818277,15.7518049 C19.7933368,15.7529756 32.2827363,15.7592195 32.3636971,15.7592195 C34.8703081,15.7592195 36.9026632,13.7607805 36.9026632,11.2956098 C36.9026632,8.83043902 34.870705,6.83160976 32.364094,6.83160976 L32.364094,6.83160976 Z M18.3638225,1.04585366 C18.0911749,1.04585366 17.867342,1.26595122 17.8633734,1.53639024 L17.6585901,11.5910244 L17.8637702,15.2401951 C17.867342,15.5067317 18.0911749,15.726439 18.3638225,15.726439 C18.6356762,15.726439 18.8595091,15.5067317 18.8634778,15.2362927 L18.8634778,15.2405854 L19.0861201,11.5910244 L18.8634778,1.53560976 C18.8595091,1.26595122 18.6356762,1.04585366 18.3638225,1.04585366 L18.3638225,1.04585366 Z M44.5377587,7.20094237 C43.0196861,6.82473023 42.6090323,6.62361053 42.6090323,5.98949194 C42.6090323,5.54229637 42.9512438,5.07972106 43.9767562,5.07972106 C44.8530421,5.07972106 45.537465,5.45475014 46.1523237,6.11844516 L47.5335118,4.70587502 C46.6302978,3.71092403 45.536343,3.1193955 44.0463205,3.1193955 C42.1568643,3.1193955 40.6253276,4.24448277 40.6253276,6.07703816 C40.6253276,8.06694015 41.857289,8.65846868 43.6210807,9.09028451 C45.4263866,9.52210034 45.755134,9.81194932 45.755134,10.4614476 C45.755134,11.2257025 45.2199377,11.5581415 44.0867127,11.5581415 C43.1700347,11.5581415 42.3083349,11.2268856 41.637376,10.4022948 L40.256188,11.7012915 C40.9810032,12.8263787 42.3778993,13.5326638 43.9767562,13.5326638 C46.5910276,13.5326638 47.7399607,12.2348502 47.7399607,10.3171147 C47.7399607,8.12372689 46.0569533,7.57597146 44.5377587,7.20094237 L44.5377587,7.20094237 Z M53.3499852,3.1193955 C50.7379577,3.1193955 49.192957,5.25363044 49.192957,8.32602964 C49.192957,11.3984288 50.7379577,13.5314807 53.3499852,13.5314807 C55.9620126,13.5314807 57.5092573,11.3984288 57.5092573,8.32602964 C57.5092573,5.25363044 55.9620126,3.1193955 53.3499852,3.1193955 L53.3499852,3.1193955 Z M53.3499852,11.5285651 C51.8049844,11.5285651 51.1609536,10.1290086 51.1609536,8.3272127 C51.1609536,6.52423373 51.8049844,5.12467722 53.3499852,5.12467722 C54.8972299,5.12467722 55.5390167,6.52423373 55.5390167,8.3272127 C55.5390167,10.1290086 54.8972299,11.5285651 53.3499852,11.5285651 L53.3499852,11.5285651 Z M65.2387491,8.9471346 C65.2387491,10.5620075 64.4847618,11.5581415 63.2685085,11.5581415 C62.0511331,11.5581415 61.3128539,10.5336141 61.3128539,8.91874123 L61.3128539,3.27674209 L59.3964696,3.27674209 L59.3964696,8.9471346 C59.3964696,11.8882145 60.9571784,13.5326638 63.2685085,13.5326638 C65.7032591,13.5326638 67.1540114,11.8444414 67.1540114,8.91874123 L67.1540114,3.27674209 L65.2387491,3.27674209 L65.2387491,8.9471346 L65.2387491,8.9471346 Z M75.4153335,7.54757809 C75.4153335,8.11071326 75.4422616,9.37895043 75.4422616,9.75397952 C75.3188411,9.49370697 75.0046797,8.98972466 74.7724247,8.61351251 L71.3783599,3.27555903 L69.5461259,3.27555903 L69.5461259,13.3741341 L71.4344601,13.3741341 L71.4344601,8.9305718 C71.4344601,8.36743664 71.407532,7.09919947 71.407532,6.72417038 C71.5298305,6.98325987 71.8462359,7.48842524 72.0773689,7.86463739 L75.5937323,13.3741341 L77.3036677,13.3741341 L77.3036677,3.27555903 L75.4153335,3.27555903 L75.4153335,7.54757809 L75.4153335,7.54757809 Z M82.7610996,3.27674209 L79.7653465,3.27674209 L79.7653465,13.3753172 L82.623093,13.3753172 C85.0858937,13.3753172 87.5217663,11.8740178 87.5217663,8.32602964 C87.5217663,4.63252548 85.4965475,3.27674209 82.7610996,3.27674209 L82.7610996,3.27674209 Z M82.623093,11.4138086 L81.6806088,11.4138086 L81.6806088,5.23943376 L82.6926573,5.23943376 C84.7178761,5.23943376 85.5526477,6.26277812 85.5526477,8.32602964 C85.5526477,10.1727817 84.6348477,11.4138086 82.623093,11.4138086 L82.623093,11.4138086 Z M93.4448302,5.12349417 C94.30653,5.12349417 94.8540683,5.52809968 95.1962798,6.22018807 L96.9746576,5.35537335 C96.372141,4.04336307 95.2770642,3.1193955 93.4717583,3.1193955 C90.9708094,3.1193955 89.2182377,5.25363044 89.2182377,8.32602964 C89.2182377,11.5131854 90.9001231,13.5314807 93.403316,13.5314807 C95.1413016,13.5314807 96.2902346,12.6808627 96.9466075,11.2529128 L95.3331644,10.2425821 C94.8271402,11.1381563 94.319994,11.5273821 93.4582943,11.5273821 C92.022128,11.5273821 91.1873563,10.1420222 91.1873563,8.32602964 C91.1862343,6.45206725 92.0097859,5.12349417 93.4448302,5.12349417 L93.4448302,5.12349417 Z M100.548243,3.27674209 L98.6329808,3.27674209 L98.6329808,13.3753172 L104.388866,13.3753172 L104.388866,11.3830491 L100.548243,11.3830491 L100.548243,3.27674209 L100.548243,3.27674209 Z M109.434522,3.1193955 C106.820251,3.1193955 105.27525,5.25363044 105.27525,8.32602964 C105.27525,11.3984288 106.820251,13.5314807 109.434522,13.5314807 C112.046549,13.5314807 113.592672,11.3984288 113.592672,8.32602964 C113.592672,5.25363044 112.046549,3.1193955 109.434522,3.1193955 L109.434522,3.1193955 Z M109.434522,11.5285651 C107.887277,11.5285651 107.24549,10.1290086 107.24549,8.3272127 C107.24549,6.52423373 107.887277,5.12467722 109.434522,5.12467722 C110.978401,5.12467722 111.62131,6.52423373 111.62131,8.3272127 C111.62131,10.1290086 110.978401,11.5285651 109.434522,11.5285651 L109.434522,11.5285651 Z M121.321042,8.9471346 C121.321042,10.5620075 120.570421,11.5581415 119.353045,11.5581415 C118.133426,11.5581415 117.396269,10.5336141 117.396269,8.91874123 L117.396269,3.27674209 L115.481006,3.27674209 L115.481006,8.9471346 C115.481006,11.8882145 117.040593,13.5326638 119.353045,13.5326638 C121.787796,13.5326638 123.237426,11.8444414 123.237426,8.91874123 L123.237426,3.27674209 L121.321042,3.27674209 L121.321042,8.9471346 L121.321042,8.9471346 Z M128.626416,3.27674209 L125.631785,3.27674209 L125.631785,13.3753172 L128.489531,13.3753172 C130.953454,13.3753172 133.387083,11.8740178 133.387083,8.32602964 C133.387083,4.63252548 131.362986,3.27674209 128.626416,3.27674209 L128.626416,3.27674209 Z M128.489531,11.4138086 L127.545925,11.4138086 L127.545925,5.23943376 L128.559095,5.23943376 C130.58207,5.23943376 131.416842,6.26277812 131.416842,8.32602964 C131.416842,10.1727817 130.500164,11.4138086 128.489531,11.4138086 L128.489531,11.4138086 Z" id="Shape" sketch:type="MSShapeGroup"></path>
            </g>
        </g>
    </g>
</svg>

<svg width="134" height="16" viewBox="0 0 134 16" xmlns="http://www.w3.org/2000/svg"><path d="M.418 9.425c-.077 0-.138.06-.148.142L0 11.583l.27 1.98c.01.084.07.142.148.142.075 0 .135-.057.147-.14l.32-1.982-.32-2.016c-.01-.083-.073-.142-.147-.142zm1.518-1.1c-.013-.088-.076-.147-.154-.147s-.143.06-.154.146l-.362 3.26.362 3.186c.01.085.075.147.154.147.077 0 .14-.06.153-.147l.413-3.187-.412-3.26zm5.716-3.007c-.15 0-.272.12-.28.272l-.288 5.996.29 3.874c.007.152.13.27.278.27.148 0 .27-.12.28-.27l.326-3.874L7.93 5.59c-.007-.152-.13-.272-.278-.272zm-2.96 2.084c-.113 0-.206.09-.215.21l-.326 3.972.327 3.844c.008.12.102.208.216.208.113 0 .207-.09.217-.208l.37-3.844-.37-3.973c-.01-.118-.104-.208-.217-.208zm5.967 8.33c.183 0 .333-.148.34-.335l.284-3.81L11 3.606c-.006-.187-.156-.334-.34-.334-.187 0-.337.148-.343.335l-.252 7.982.252 3.81c.006.187.156.334.342.334zm6.154.017c.254 0 .464-.207.468-.46v.003-.003l.198-3.7-.198-9.22c-.004-.252-.214-.458-.468-.458s-.464.206-.468.46l-.177 9.215.176 3.705c.004.25.214.457.468.457zm-3.1-.016c.22 0 .398-.174.404-.397v.003l.24-3.752-.24-8.04c-.006-.222-.184-.396-.405-.396-.223 0-.4.174-.406.396l-.214 8.04.214 3.752c.005.22.183.394.406.394zM6.166 15.7c.13 0 .238-.104.248-.24l.348-3.876-.348-3.687c-.01-.136-.116-.238-.248-.238-.133 0-.24.102-.248.24l-.308 3.684.307 3.875c.008.136.114.24.247.24zm-2.935-.213c.096 0 .174-.075.185-.178l.39-3.727-.39-3.866c-.01-.104-.09-.178-.185-.178-.098 0-.175.074-.185.177l-.345 3.866.345 3.725c.01.104.087.18.185.18zM15.258 3.414c-.24 0-.433.188-.438.428l-.195 7.747.195 3.727c.005.237.197.425.438.425.24 0 .43-.188.436-.428v.003l.22-3.728-.22-7.748c-.005-.24-.197-.428-.436-.428zM9.15 15.74c.166 0 .303-.135.31-.304l.305-3.85L9.46 4.22c-.008-.17-.144-.303-.31-.303-.168 0-.304.133-.31.303l-.27 7.367.27 3.85c.006.168.142.302.31.302zm3.403-.365v-.002l.262-3.785-.262-8.25c-.006-.206-.17-.367-.373-.367-.204 0-.368.16-.374.367l-.233 8.25.233 3.788c.006.203.17.363.374.363.203 0 .367-.16.373-.364zm19.81-8.543c-.62 0-1.214.123-1.755.346C30.248 3.156 26.818 0 22.632 0c-1.024 0-2.022.198-2.903.533-.344.13-.435.265-.438.525v14.166c.003.273.22.5.49.528l12.582.007c2.506 0 4.54-2 4.54-4.464 0-2.466-2.033-4.464-4.54-4.464zm-14-5.786c-.272 0-.496.22-.5.49L17.66 11.59l.204 3.65c.003.267.227.486.5.486.272 0 .496-.22.5-.49v.005l.222-3.65-.223-10.054c-.003-.27-.227-.49-.5-.49zM44.54 7.2c-1.518-.375-1.93-.576-1.93-1.21 0-.448.343-.91 1.37-.91.875 0 1.56.375 2.174 1.038l1.382-1.412c-.904-.995-1.998-1.587-3.488-1.587-1.89 0-3.42 1.124-3.42 2.957 0 1.99 1.23 2.58 2.995 3.013 1.806.432 2.135.722 2.135 1.37 0 .766-.535 1.098-1.668 1.098-.917 0-1.78-.33-2.45-1.156l-1.38 1.3c.724 1.124 2.12 1.83 3.72 1.83 2.614 0 3.763-1.297 3.763-3.215 0-2.193-1.683-2.74-3.202-3.116zm8.812-4.08c-2.612 0-4.157 2.134-4.157 5.206 0 3.072 1.545 5.205 4.157 5.205s4.16-2.132 4.16-5.204c0-3.072-1.548-5.207-4.16-5.207zm0 8.41c-1.545 0-2.19-1.4-2.19-3.203s.645-3.202 2.19-3.202c1.547 0 2.19 1.4 2.19 3.202s-.643 3.202-2.19 3.202zm11.89-2.583c0 1.615-.755 2.61-1.97 2.61-1.22 0-1.957-1.023-1.957-2.638V3.276h-1.917v5.67c0 2.94 1.56 4.586 3.873 4.586 2.433 0 3.884-1.69 3.884-4.614V3.276H65.24v5.67zm10.175-1.4c0 .564.027 1.832.027 2.207-.123-.26-.437-.764-.67-1.14l-3.394-5.338h-1.832v10.098h1.888V8.93c0-.563-.026-1.83-.026-2.206.122.26.438.764.67 1.14l3.516 5.51h1.71V3.276h-1.89v4.272zm7.346-4.27h-2.995v10.098h2.858c2.463 0 4.9-1.5 4.9-5.05 0-3.692-2.026-5.048-4.762-5.048zm-.137 8.137h-.942V5.24h1.013c2.025 0 2.86 1.023 2.86 3.086 0 1.847-.918 3.088-2.93 3.088zm10.822-6.29c.862 0 1.41.404 1.75 1.096l1.78-.865c-.603-1.312-1.698-2.236-3.503-2.236-2.5 0-4.254 2.134-4.254 5.206 0 3.187 1.682 5.205 4.185 5.205 1.738 0 2.887-.85 3.544-2.277l-1.614-1.01c-.506.895-1.013 1.284-1.875 1.284-1.436 0-2.27-1.385-2.27-3.2-.002-1.875.822-3.204 2.257-3.204zm7.103-1.847h-1.915v10.098h5.756v-1.992h-3.842V3.277zm8.887-.158c-2.615 0-4.16 2.134-4.16 5.206 0 3.072 1.545 5.205 4.16 5.205 2.612 0 4.158-2.132 4.158-5.204 0-3.072-1.546-5.207-4.158-5.207zm0 8.41c-1.548 0-2.19-1.4-2.19-3.203s.642-3.202 2.19-3.202c1.543 0 2.186 1.4 2.186 3.202s-.642 3.202-2.185 3.202zm11.886-2.583c0 1.615-.75 2.61-1.967 2.61-1.22 0-1.957-1.023-1.957-2.638V3.276h-1.915v5.67c0 2.94 1.56 4.586 3.873 4.586 2.435 0 3.884-1.69 3.884-4.614V3.276h-1.916v5.67zm7.306-5.67h-2.994v10.098h2.858c2.463 0 4.897-1.5 4.897-5.05 0-3.692-2.024-5.048-4.76-5.048zm-.136 8.137h-.944V5.24h1.013c2.022 0 2.857 1.023 2.857 3.086 0 1.847-.917 3.088-2.927 3.088z" fill="#FFF" fill-rule="evenodd"/></svg>
